X:73
T:Green Fields of America (reel), The   
B:CRE1.079 (Garranta Glasa Mheiricea)
F:file ID: cre.1/073green_f
S:John Kelly
M:C
L:1/8
Q:180
R:reel
K:G
Bc|decd B3G|AcBG AGEF|(3GFE (3FED EFGB|AGBG AGEG|
cdcA B3G|AcBG AGEF|(3GFE (3FED EFGB|ADFA G2:|
%B
(3GFG|GABc d2ef|g3e dBGB|cdcA B3G|AcBG AGEF|
GABc d2ef|g3e dBGB|cece BdBd|ADFA G2||
%C
(3GFG|GABc d2ef|g3e dBGB|cdcA B3G|AcBG AGE2|
gfed edBd|(3cBA BG AGEF|(3GFE (3FED EFGB|A/B/A FA HG4|]

%%%

